!!!!SEGMENT: pl-kk--kk-i-3--039-002_anonim--per-octavas-agnus-dei.krn
!!!cenid: 15xx:649
!!!COM: Anonim
!!!COM-rismid: pe30004985
!!!CDT:
!!!CNT:
!!!OPR: Per octavas
!!!OTL: Agnus Dei
!!!OMV: 002
!!!PDT:
!!!AGN:
!!!SMS-siglum: PL-Kk
!!!SMS-shelfmark: Kk.I.3
!!!SMS-shelfwork: 039-002 M
!!!SMS-variant:
!!!SMS-altvar:
!!!NIFC-rismid: 1001145542
!!!URL-scan: http://repozytorium.nifc.pl/skany/pl-kk-nut--i-3
!!!ONB-nifc: UWAGA: Discantus (s. 117v-118v, skan 0120-0121), Tenor (s. 88v-89r, skan 0261), Bassus (s. 113v-114v, skan 0417-0418)
!!!key:
**kern	**text	**kern	**text	**text	**kern	**text	**text
*part3	*part3	*part2	*part2	*part2	*part1	*part1	*part1
*staff3	*staff3	*staff2	*staff2	*staff2	*staff1	*staff1	*staff1
*Ibass	*	*Itenor	*	*	*Iempty	*	*
*I"[Bassus]	*	*I"[Tenor]	*	*	*I"[Discantus]	*	*
*ICvox	*	*ICvox	*	*	*ICvox	*	*
*I'B	*	*I'T	*	*	*I'S	*	*
*clefF3	*	*clefC4	*	*	*clefC3	*	*
*k[]	*	*k[]	*	*	*k[]	*	*
*d:	*	*d:	*	*	*d:	*	*
*M2/1	*	*M2/1	*	*	*M2/1	*	*
*met(C|)	*	*met(C|)	*	*	*met(C|)	*	*
*	*	*	*	*	*	*	*
*2\right	*	*2\right	*	*	*2\right	*	*
*	*	*lig	*	*	*	*	*
=1-	=1-	=1-	=1-	=1-	=1-	=1-	=1-
!	!	!	!	!	!LO:TX:t=P:problem=kasownik przy kluczu	!	!
0r	.	1A	A-	.	0e	A-	.
.	.	1G	.	.	.	.	.
*	*	*Xlig	*	*	*	*	*
=2-	=2-	=2-	=2-	=2-	=2-	=2-	=2-
*lig	*	*lig	*	*	*	*	*
1A	A-	1A	.	.	0e	.	.
1G	.	1B	.	.	.	.	.
*Xlig	*	*Xlig	*	*	*	*	*
=3-	=3-	=3-	=3-	=3-	=3-	=3-	=3-
*lig	*	*lig	*	*	*lig	*	*
1A	.	1c	.	.	1e	.	.
1B	.	1G	.	.	1g	.	.
*Xlig	*	*Xlig	*	*	*Xlig	*	*
=4-	=4-	=4-	=4-	=4-	=4-	=4-	=4-
*lig	*	*lig	*	*	*lig	*	*
1c	.	1A	.	.	1e	.	.
1G	.	1B	.	.	1d	.	.
*Xlig	*	*Xlig	*	*	*Xlig	*	*
=5-	=5-	=5-	=5-	=5-	=5-	=5-	=5-
*	*	*lig	*	*	*lig	*	*
1C	.	1c	.	.	1g	.	.
2.F/	.	1A	.	.	1a	.	.
4G/	.	.	.	.	.	.	.
*	*	*Xlig	*	*	*Xlig	*	*
=6-	=6-	=6-	=6-	=6-	=6-	=6-	=6-
*	*	*lig	*	*	*	*	*
2A/	.	1c	.	.	1a	.	.
4G/	.	.	.	.	.	.	.
4F/	.	.	.	.	.	.	.
2.E/	.	1e	.	.	0g	.	.
4F/	.	.	.	.	.	.	.
*	*	*Xlig	*	*	*	*	*
=7-	=7-	=7-	=7-	=7-	=7-	=7-	=7-
2G/	.	1d	.	.	.	.	.
!LO:SIC:v:t=custos A	!	!	!	!	!	!	!
2G/	.	.	.	.	.	.	.
!LO:LB:g=original	!	!	!	!	!	!	!
*clefF4	*	*lig	*	*	*	*	*
1A	.	1c	.	.	1e	.	.
=8-	=8-	=8-	=8-	=8-	=8-	=8-	=8-
0D	.	1d	.	.	2f\	.	.
.	.	.	.	.	2d/	-gnus	.
*	*	*Xlig	*	*	*	*	*
*	*	*	*	*	*4\right	*	*
.	.	1d,	-gnus	.	4f\	de-	.
!	!	!	!	!	!LO:SIC:v:t=custos a	!	!
.	.	.	.	.	4g\	.	.
!	!	!	!	!	!LO:LB:g=original	!	!
.	.	.	.	.	1a\	.	.
=9-	=9-	=9-	=9-	=9-	=9-	=9-	=9-
2F/	.	1A	de-	.	.	.	.
2D/	.	.	.	.	4g\	.	.
.	.	.	.	.	4f\	.	.
1AA	-gnus	1A,	-i	.	1e	-i	.
=10-	=10-	=10-	=10-	=10-	=10-	=10-	=10-
!	!	!LO:SIC:v:t=custos A	!	!	!	!	!
1r	.	0d	qui	.	1f	qui	.
!	!	!LO:LB:g=original	!	!	!	!	!
2D/	de-	.	.	.	2d/	.	.
1D\	-i	.	.	.	1f\	.	.
=11-	=11-	=11-	=11-	=11-	=11-	=11-	=11-
.	.	1A	.	.	.	.	.
4C/	.	.	.	.	4e\	.	.
4BB/	.	.	.	.	4d/	.	.
2C/	.	1G	.	.	2e/	.	.
*2\right	*	*	*	*	*	*	*
2G\	.	.	.	.	2d/	.	.
=12-	=12-	=12-	=12-	=12-	=12-	=12-	=12-
1D	.	1F	.	.	2f\	.	.
.	.	.	.	.	1d	.	.
1AA	.	1E	.	.	.	.	.
.	.	.	.	.	2c/	.	.
=13-	=13-	=13-	=13-	=13-	=13-	=13-	=13-
0A	.	0D	.	.	0d	.	.
=14-	=14-	=14-	=14-	=14-	=14-	=14-	=14-
2.AA/	qui	0A	.	.	2.c/	.	.
4BB-X/	.	.	.	.	4d/	.	.
!	!	!	!	!	!LO:SIC:v:t=custos f	!	!
2C/	.	.	.	.	2e\	.	.
!	!	!	!	!	!LO:LB:g=original	!	!
2.D/	tol-	.	.	.	2.f\	.	.
=15-	=15-	=15-	=15-	=15-	=15-	=15-	=15-
*	*	*lig	*	*	*	*	*
.	.	1D	.	.	.	.	.
!LO:SIC:v:t=custos BB	!	!	!	!	!	!	!
4C/	.	.	.	.	4e/	.	.
!LO:LB:g=original	!	!	!	!	!	!	!
2BB/ny	.	.	.	.	1d	.	.
1AA	.	1E	.	.	.	.	.
.	.	.	.	.	2c/	tol-	.
*	*	*Xlig	*	*	*	*	*
=16-	=16-	=16-	=16-	=16-	=16-	=16-	=16-
*	*	*lig	*	*	*	*	*
4GG/	.	1G	.	.	0d	-lis	.
4AA/	.	.	.	.	.	.	.
4BB/	.	.	.	.	.	.	.
4C/	.	.	.	.	.	.	.
1D	-lis	1F	.	.	.	.	.
*	*	*Xlig	*	*	*	*	*
=17-	=17-	=17-	=17-	=17-	=17-	=17-	=17-
1AA	.	1E	tol-	.	0r	.	.
*clefF3	*	*	*	*	*	*	*
2.A\	pec-	1D,	-lis	.	.	.	.
4G/	-ca-	.	.	.	.	.	.
=18-	=18-	=18-	=18-	=18-	=18-	=18-	=18-
1A	-ta	1A	pec-	.	0r	.	.
1B	.	1G	-ca-	.	.	.	.
=19-	=19-	=19-	=19-	=19-	=19-	=19-	=19-
*lig	*	*lig	*	*	*lig	*	*
1c	mun-	1A	-ta	.	1A	pec-	.
1G	.	1B,	.	.	1G	-ca-	.
*Xlig	*	*Xlig	*	*	*Xlig	*	*
=20-	=20-	=20-	=20-	=20-	=20-	=20-	=20-
*	*	*lig	*	*	*	*	*
1F	.	1c	mu(n)-	.	1A	-ta	.
1E	.	1G	.	.	1B	.	.
*	*	*Xlig	*	*	*	*	*
=21-	=21-	=21-	=21-	=21-	=21-	=21-	=21-
*	*	*lig	*	*	*lig	*	*
1AA	.	1A	.	.	1c	mun-	.
!LO:SIC:v:t=custos AA	!	!LO:SIC:v:t=custos c	!	!	!	!	!
1E	.	1B	.	.	1G	.	.
!LO:LB:g=original	!	!LO:LB:g=original	!	!	!	!	!
*	*	*Xlig	*	*	*Xlig	*	*
=22-	=22-	=22-	=22-	=22-	=22-	=22-	=22-
*	*	*lig	*	*	*	*	*
0AA	-di	1c	.	.	2.A/	.	.
.	.	.	.	.	4B/	.	.
.	.	1A	.	.	2.c/	.	.
.	.	.	.	.	4d/	.	.
*	*	*Xlig	*	*	*	*	*
=23-	=23-	=23-	=23-	=23-	=23-	=23-	=23-
*	*	*lig	*	*	*	*	*
1A	mi-	1c	.	.	2.e\	.	.
!	!	!	!	!	!LO:SIC:v:t=custos g	!	!
.	.	.	.	.	4f\	.	.
!	!	!	!	!	!LO:LB:g=original	!	!
2E/	-se-	1e	.	.	1g	.	.
2C/	-re-	.	.	.	.	.	.
*	*	*Xlig	*	*	*	*	*
=24-	=24-	=24-	=24-	=24-	=24-	=24-	=24-
1D	-re	1d	.	.	2f\	.	.
.	.	.	.	.	2d/	.	.
*	*	*lig	*	*	*	*	*
1A	.	1c	.	.	1e	.	.
=25-	=25-	=25-	=25-	=25-	=25-	=25-	=25-
2D/	.	1d	.	.	1d	-di	.
2G\	.	.	.	.	.	.	.
*	*	*Xlig	*	*	*	*	*
2F\	.	1d,	-di	.	1f	.	.
1D\	.	.	.	.	.	.	.
=26-	=26-	=26-	=26-	=26-	=26-	=26-	=26-
.	.	1A	mi-	Do-	1e	mi-	Do-
2C/	no	.	.	.	.	.	.
2.D/	.	1A	-se-	-na	0a	-se-	-na
4E/	.	.	.	.	.	.	.
=27-	=27-	=27-	=27-	=27-	=27-	=27-	=27-
2F\	.	1d	-re-	no-	.	.	.
1D	.	.	.	.	.	.	.
.	.	1d	-re	-bis	1a	-re-	no-
1D\	.	.	.	.	.	.	.
=28-	=28-	=28-	=28-	=28-	=28-	=28-	=28-
.	.	1A	no-	pa-	2f\	-re	.
2C/	.	.	.	.	2e\	.	-bis
!LO:SIC:v:t=custos D	!	!	!	!	!	!	!
1E	.	1G	.	.	2g\	.	.
!LO:LB:g=original	!	!	!	!	!	!	!
.	.	.	.	.	2e\	.	.
=29-	=29-	=29-	=29-	=29-	=29-	=29-	=29-
1D	.	1F	.	.	2f\	.	.
.	.	.	.	.	1d	.	.
1AA	.	1E	.	.	.	.	.
.	.	.	.	.	2c/	no	pa
=30-	=30-	=30-	=30-	=30-	=30-	=30-	=30-
0BB-X	.	0D	.	.	0d	.	.
=31-	=31-	=31-	=31-	=31-	=31-	=31-	=31-
!	!	!	!	!	!LO:SIC:v:t=custos d	!	!
1AA	.	0A	.	.	1c	.	.
!	!	!	!	!	!LO:LB:g=original	!	!
2D/	.	.	.	.	2d/	.	.
2C/	.	.	.	.	2e\	.	.
=32-	=32-	=32-	=32-	=32-	=32-	=32-	=32-
*	*	*lig	*	*	*	*	*
1D	.	1D	.	.	1f	.	.
!	!	!LO:SIC:v:t=custos G	!	!	!	!	!
1AA	.	1E	.	.	1e	.	.
!	!	!LO:LB:g=original	!	!	!	!	!
*	*	*Xlig	*	*	*	*	*
=33-	=33-	=33-	=33-	=33-	=33-	=33-	=33-
*	*	*lig	*	*	*	*	*
2r	.	1G	.	.	0d	.	.
2GG/	.	.	.	.	.	.	.
1D	.	1F	.	.	.	.	.
*	*	*Xlig	*	*	*	*	*
=34-	=34-	=34-	=34-	=34-	=34-	=34-	=34-
2AA/	.	0E	.	.	2e/	.	.
2BB/ny	.	.	.	.	1d	.	.
1AA	.	.	.	.	.	.	.
.	.	.	.	.	2c/	.	.
=35-	=35-	=35-	=35-	=35-	=35-	=35-	=35-
!LO:SIC:v:t=custos AA	!	!	!	!	!	!	!
0D;	.	0D;	-bis	-cem.	0d;	.	.
!LO:LB:g=original	!	!	!	!	!	!	!
=36||-	=36||-	=36||-	=36||-	=36||-	=36||-	=36||-	=36||-
2A\	A-	1A	A-	.	2.e\	A-	.
1c	-gnus	.	.	.	.	.	.
.	.	.	.	.	4f\	-gnus	.
.	.	1G,	-gnus	.	1g	De-	.
2B\	.	.	.	.	.	.	.
=37-	=37-	=37-	=37-	=37-	=37-	=37-	=37-
1c	.	1A	de-	.	1e	-i	.
1r	.	1B,	-i	.	1d	.	.
=38-	=38-	=38-	=38-	=38-	=38-	=38-	=38-
*	*	*lig	*	*	*	*	*
!	!	!	!	!	!LO:SIC:v:t=custos c	!	!
2.C/	de-	1c	qui	.	2G/	qui	.
!	!	!	!	!	!LO:LB:g=original	!	!
.	.	.	.	.	2c/	.	.
4D/	-i	.	.	.	.	.	.
1E	.	1G	.	.	2B/	.	.
.	.	.	.	.	2c/	.	.
*	*	*Xlig	*	*	*	*	*
=39-	=39-	=39-	=39-	=39-	=39-	=39-	=39-
*	*	*lig	*	*	*	*	*
2.D/	.	1A	.	.	0d	.	.
4C/	qui	.	.	.	.	.	.
1D	.	1B	.	.	.	.	.
*	*	*Xlig	*	*	*	*	*
=40-	=40-	=40-	=40-	=40-	=40-	=40-	=40-
*	*	*lig	*	*	*	*	*
1C	tol-	1c	.	.	1G	.	.
2D/	-lis	1A	.	.	2F/	.	.
1F\	.	.	.	.	2f\	.	.
*	*	*Xlig	*	*	*	*	*
=41-	=41-	=41-	=41-	=41-	=41-	=41-	=41-
*	*	*lig	*	*	*	*	*
.	.	1c	.	.	1a	.	.
2F/	.	.	.	.	.	.	.
!	!	!LO:SIC:v:t=custos d	!	!	!	!	!
1C	.	1e	.	.	1g	.	.
!	!	!LO:LB:g=original	!	!	!	!	!
*	*	*Xlig	*	*	*	*	*
=42-	=42-	=42-	=42-	=42-	=42-	=42-	=42-
!LO:SIC:v:t=custos A	!	!	!	!	!	!	!
*	*	*lig	*	*	*	*	*
1G	.	1d	.	.	1g	.	.
!LO:PB:g=original	!	!	!	!	!	!	!
*clefF4	*	*	*	*	*	*	*
1A	.	1c,	.	.	1e	.	.
*	*	*Xlig	*	*	*	*	*
=43-	=43-	=43-	=43-	=43-	=43-	=43-	=43-
1D	.	1d	tol-	.	4f\	tol-	.
.	.	.	.	.	4e\	-lis	.
.	.	.	.	.	4d/	.	.
.	.	.	.	.	4c/	.	.
2G\	.	1d,	-lis	.	2B-X/	.	.
2D/	.	.	.	.	2A/	.	.
=44-	=44-	=44-	=44-	=44-	=44-	=44-	=44-
!	!	!	!	!	!LO:SIC:v:t=custos e	!	!
2.F\	pec-	1A	pec-	.	1f	pec-	.
!	!	!	!	!	!LO:LB:g=original	!	!
4G\	.	.	.	.	.	.	.
1A	.	1A	-ca-	.	2.e\	-ca-	.
.	.	.	.	.	4f\	-ta	.
=45-	=45-	=45-	=45-	=45-	=45-	=45-	=45-
0G	-ca-	0d,	-ta	.	0g	.	.
=46-	=46-	=46-	=46-	=46-	=46-	=46-	=46-
*	*	*lig	*	*	*	*	*
2D/	-ta	1A	mun-	.	1f	mun	.
2F/	.	.	.	.	.	.	.
1C	.	1G	.	.	2e\	.	.
.	.	.	.	.	2c/	.	.
*	*	*Xlig	*	*	*	*	*
=47-	=47-	=47-	=47-	=47-	=47-	=47-	=47-
2.FF/	.	1F	.	.	0A	.	.
4GG/	.	.	.	.	.	.	.
1AA	.	1E	.	.	.	.	.
=48-	=48-	=48-	=48-	=48-	=48-	=48-	=48-
0A	.	0D	.	.	2A/	.	.
.	.	.	.	.	1.d	.	.
=49-	=49-	=49-	=49-	=49-	=49-	=49-	=49-
2.AA/	pec-	0A	.	.	2.c/	.	.
!LO:SIC:v:t=custos C	!	!	!	!	!	!	!
4BB/	.	.	.	.	4d\	.	.
!LO:LB:g=original	!	!	!	!	!	!	!
2C/	.	.	.	.	2e\	.	.
2AA/	-ca-	.	.	.	2c/	.	.
=50-	=50-	=50-	=50-	=50-	=50-	=50-	=50-
*	*	*lig	*	*	*	*	*
1D	-ta	1D	.	.	2d/	.	.
.	.	.	.	.	2f\	.	.
1AA	mun-	1E	.	.	2e/	.	.
!	!	!	!	!	!LO:SIC:v:t=custos d	!	!
.	.	.	.	.	2c/	.	.
!	!	!	!	!	!LO:PB:g=original	!	!
*	*	*Xlig	*	*	*	*	*
=51-	=51-	=51-	=51-	=51-	=51-	=51-	=51-
1GG	.	1G	.	.	2d/	.	.
.	.	.	.	.	4c/	.	.
.	.	.	.	.	4B/ny	.	.
*	*	*lig	*	*	*	*	*
1D	.	1F	.	.	2A/	.	.
.	.	.	.	.	2B/	.	.
=52-	=52-	=52-	=52-	=52-	=52-	=52-	=52-
2C/	.	1E	.	.	1c	.	.
2AA/	.	.	.	.	.	.	.
*	*	*Xlig	*	*	*	*	*
!	!	!LO:SIC:v:t=custos A	!	!	!	!	!
1D	-di	1D	-di	.	1A	.	.
!	!	!LO:LB:g=original	!	!	!	!	!
=53-	=53-	=53-	=53-	=53-	=53-	=53-	=53-
1AA	mi-	1A	mi-	.	0e	.	.
1E	-se-	1G	-se-	.	.	.	.
=54-	=54-	=54-	=54-	=54-	=54-	=54-	=54-
1AA	-re-	1A	-re-	.	1r	.	.
2.E/	.	1B,	-re	.	1g	.	.
4D/	-re	.	.	.	.	.	.
=55-	=55-	=55-	=55-	=55-	=55-	=55-	=55-
*	*	*lig	*	*	*	*	*
2.C/	.	1c	no-	.	1e	.	.
4D/	.	.	.	.	.	.	.
2E/	.	1G	.	.	2g\	.	.
!LO:SIC:v:t=custos D	!	!	!	!	!	!	!
2E/	.	.	.	.	2g\	.	.
!LO:LB:g=original	!	!	!	!	!	!	!
*	*	*Xlig	*	*	*	*	*
=56-	=56-	=56-	=56-	=56-	=56-	=56-	=56-
*	*	*lig	*	*	*lig	*	*
2D/	.	1A	.	.	1d	.	.
2F\	.	.	.	.	.	.	.
2.E/	.	1B	.	.	1g	.	.
4D/	.	.	.	.	.	.	.
*	*	*Xlig	*	*	*Xlig	*	*
=57-	=57-	=57-	=57-	=57-	=57-	=57-	=57-
*	*	*lig	*	*	*	*	*
1C	.	1c	.	.	1e	.	.
1D	.	1A	.	.	1d	.	.
*	*	*Xlig	*	*	*	*	*
=58-	=58-	=58-	=58-	=58-	=58-	=58-	=58-
*	*	*lig	*	*	*	*	*
!	!	!	!	!	!LO:SIC:v:t=custos g	!	!
1A	no-	1c	.	.	1c	.	.
!	!	!	!	!	!LO:LB:g=original	!	!
2.E/	.	1e	.	.	1.g	.	.
4F\	.	.	.	.	.	.	.
*	*	*Xlig	*	*	*	*	*
=59-	=59-	=59-	=59-	=59-	=59-	=59-	=59-
2G\	.	1d	.	.	.	.	.
2D/	.	.	.	.	2f\	.	.
*	*	*lig	*	*	*	*	*
1A	.	1c	.	.	1e	.	.
=60-	=60-	=60-	=60-	=60-	=60-	=60-	=60-
1.D	.	1d	.	.	2.d\	.	.
.	.	.	.	.	4e\	.	.
*	*	*Xlig	*	*	*	*	*
.	.	0.d	-bis.	.	2f\	.	.
2GG/	.	.	.	.	1g\	.	.
=61-	=61-	=61-	=61-	=61-	=61-	=61-	=61-
1D	.	.	.	.	.	.	.
.	.	.	.	.	2f\	.	.
1GG	.	.	.	.	1g	.	.
=62-	=62-	=62-	=62-	=62-	=62-	=62-	=62-
0D;	-bis	0dyy	.	.	0f;	.	.
=-	=-	=-	=-	=-	=-	=-	=-
*-	*-	*-	*-	*-	*-	*-	*-
!!!system-decoration: [(s1,s2,s3)]
!!!AIN: 1 bass 1 empty 1 tenor
!!!ENC: Anastazja Marusiak
!!!END: 2022-01-18
!!!ENC: Julita Ruszuk
!!!END: 2022-01-25
